usr/share/icons/biglinux-icons-material-dark/22/actions/im-google.svg

<svg xmlns="http://www.w3.org/2000/svg" viewBox="0 0 22 22">
  <defs id="defs3051">
    <style type="text/css" id="current-color-scheme">
      .ColorScheme-Text {
        color:#dedede;
      }
      </style>
  </defs>
 <path 
     style="fill:currentColor;fill-opacity:1;stroke:none" 
     d="M 11.611328 3 C 11.429922 2.9999 11.013362 3.0177813 10.505859 3.1132812 C 9.3063349 3.3394813 7.6450237 4.1515938 7.1757812 5.8710938 C 6.4500656 8.5300938 8.3105469 9.6035156 8.3105469 9.6035156 C 8.3105469 9.6035156 8.9758013 9.9956188 9.2460938 10.074219 C 10.058425 10.310619 10.925781 10.203125 10.925781 10.203125 C 10.925781 10.203125 10.576741 11.390369 11.267578 12.230469 C 11.432511 12.430969 11.314453 12.441406 11.314453 12.441406 C 11.314453 12.441406 8.2927241 12.369372 6.8632812 13.951172 C 5.4338382 15.532872 6.2109375 16.984375 6.2109375 16.984375 C 6.2109375 16.984375 6.9626881 18.899894 10.195312 18.996094 C 13.442296 19.093094 15.435934 17.087319 15.611328 15.574219 C 15.699488 14.813619 15.603721 14.088044 15.238281 13.464844 C 14.882768 12.858844 14.262384 12.334772 13.666016 11.826172 C 13.295457 11.510172 13.037213 11.341956 12.871094 11.160156 C 12.714156 10.988556 12.679995 10.775275 12.685547 10.609375 C 12.693347 10.377675 12.825098 10.089741 13.214844 9.6191406 C 13.925865 8.7607406 14.107514 8.8828344 14.537109 8.2402344 C 14.665898 8.0476344 14.762345 7.7508312 14.894531 7.3320312 C 14.974161 7.0798313 14.957021 6.8291375 14.957031 6.5859375 C 14.957046 6.0604375 14.83229 5.5472 14.630859 5.125 C 14.256523 4.3404 13.615821 3.8334219 13.603516 3.7949219 L 14.724609 3.7949219 L 16 3.015625 L 11.705078 3 C 11.705064 2.9998 11.671798 3 11.611328 3 z M 10.693359 3.7304688 C 11.349877 3.7404687 12.326952 4.0872469 12.917969 5.9355469 C 13.932179 9.1069469 11.8125 9.6035156 11.8125 9.6035156 C 11.8125 9.6035156 9.3809954 9.9906219 8.9335938 7.1699219 C 8.4778396 4.2968219 9.5891566 4.143075 10.023438 3.859375 C 10.023438 3.859375 10.299448 3.7276688 10.693359 3.7304688 z M 12.015625 13.091797 C 12.015625 13.091797 13.9662 14.324822 14.148438 15.232422 C 14.352616 16.249122 14.366234 16.985975 12.886719 17.796875 C 12.449957 18.036375 11.689771 18.070266 11.207031 18.072266 C 10.020511 18.082266 9.112792 17.6137 8.6699219 17.375 C 8.4397671 17.2511 7.1785608 15.74475 8.125 14.40625 C 8.3630672 14.06955 8.6259665 13.911834 8.8710938 13.740234 C 9.3927603 13.375234 9.8979075 13.210847 10.863281 13.123047 C 11.18437 13.094047 11.595468 13.123797 12.015625 13.091797 z "
     class="ColorScheme-Text"
     />
</svg>

<svg xmlns="http://www.w3.org/2000/svg" viewBox="0 0 22 22">
<defs id="defs3051">
<style id="current-color-scheme" type="text/css">
.ColorScheme-Text{color:#dedede}
</style>
</defs>
<path d="M11.611 3c-.181 0-.598.018-1.105.113-1.2.226-2.861 1.039-3.33 2.758C6.45 8.531 8.31 9.604 8.31 9.604s.665.392.935.47c.812.237 1.68.13 1.68.13s-.35 1.186.342 2.026c.165.201.046.211.046.211s-3.021-.072-4.45 1.51-.653 3.033-.653 3.033.752 1.916 3.984 2.012c3.247.097 5.24-1.909 5.416-3.422.088-.76-.007-1.486-.373-2.11-.355-.605-.976-1.13-1.572-1.638-.37-.316-.629-.484-.795-.666a.77.77 0 0 1-.185-.55c.007-.232.14-.52.529-.99.71-.86.893-.737 1.322-1.38.129-.192.225-.49.358-.908.08-.252.062-.503.062-.746 0-.526-.125-1.039-.326-1.461-.374-.785-1.015-1.292-1.027-1.33h1.12L16 3.015 11.705 3zm-.918.73c.657.01 1.634.357 2.225 2.206 1.014 3.17-1.105 3.668-1.105 3.668S9.38 9.99 8.933 7.17c-.455-2.873.656-3.027 1.09-3.31 0 0 .276-.132.67-.13m1.323 9.362s1.95 1.233 2.132 2.14c.205 1.017.218 1.754-1.261 2.565-.437.24-1.197.273-1.68.275-1.186.01-2.094-.458-2.537-.697-.23-.124-1.491-1.63-.545-2.969.238-.336.501-.494.746-.666.522-.365 1.027-.53 1.992-.617.321-.029.732 0 1.153-.031" class="ColorScheme-Text" style="fill:currentColor;fill-opacity:1;stroke:none"/>
</svg>
